src/images/services/transportation-of-bulky-goods.svg

<svg width="96" height="96" viewBox="0 0 96 96" fill="none" xmlns="http://www.w3.org/2000/svg">
<path fill-rule="evenodd" clip-rule="evenodd" d="M43.7463 17.75C41.8062 17.75 40.3763 19.5636 40.8291 21.4501L43.1123 30.9636C43.4361 32.3125 44.6423 33.2635 46.0295 33.2635H47.5068V34.0436L45.318 36.4899C43.7596 38.2316 43.874 40.8982 45.5759 42.4999C45.6313 42.5521 45.6878 42.6025 45.7452 42.6512L30.6736 51.2635H24.75C22.5409 51.2635 20.75 53.0544 20.75 55.2635V74.6689C20.75 76.8781 22.5409 78.6689 24.75 78.6689H70.6419C72.851 78.6689 74.6419 76.8781 74.6419 74.6689V55.2635C74.6419 53.0544 72.851 51.2635 70.6419 51.2635H65.5291L50.9453 42.9299C51.1212 42.8105 51.2902 42.6767 51.4509 42.5284L51.7056 42.2933C52.5436 41.5197 53.0203 40.4311 53.0203 39.2905C53.0203 38.7383 52.5726 38.2905 52.0203 38.2905C51.468 38.2905 51.0203 38.7383 51.0203 39.2905C51.0203 39.8729 50.7769 40.4287 50.349 40.8237L50.0943 41.0588C49.7042 41.4189 49.2211 41.62 48.7272 41.6624C48.5296 41.5512 48.3102 41.5143 48.1013 41.5429C47.9983 41.5288 47.8927 41.5306 47.7884 41.5494C47.4833 41.4464 47.1954 41.2777 46.9466 41.0435C46.0348 40.1854 45.9735 38.7567 46.8084 37.8235L49.0085 35.3647C49.3293 35.006 49.5068 34.5417 49.5068 34.0604V33.2635H50.4435C51.8306 33.2635 53.0369 32.3125 53.3606 30.9636L55.6439 21.4501C56.0966 19.5636 54.6668 17.75 52.7267 17.75H43.7463ZM48.1874 43.6575C48.1382 43.6536 48.0892 43.6488 48.0402 43.6433L34.7048 51.2635H61.498L48.1874 43.6575ZM65.2442 53.2635H30.9586C30.9463 53.2637 30.934 53.2637 30.9217 53.2635H24.75C23.6454 53.2635 22.75 54.1589 22.75 55.2635V74.6689C22.75 75.7735 23.6454 76.6689 24.75 76.6689H70.6419C71.7465 76.6689 72.6419 75.7735 72.6419 74.6689V55.2635C72.6419 54.1589 71.7465 53.2635 70.6419 53.2635H65.281C65.2688 53.2637 65.2565 53.2637 65.2442 53.2635ZM48.5068 31.2635L50.4435 31.2635C50.9059 31.2635 51.308 30.9465 51.4159 30.4969L53.6991 20.9834C53.85 20.3545 53.3734 19.75 52.7267 19.75H43.7463C43.0996 19.75 42.6229 20.3545 42.7739 20.9834L45.0571 30.4969C45.165 30.9465 45.5671 31.2635 46.0295 31.2635L48.5068 31.2635ZM48.6959 59.2905C48.6959 58.7383 48.2482 58.2905 47.6959 58.2905C47.1437 58.2905 46.6959 58.7383 46.6959 59.2905V70.6419C46.6959 71.1942 47.1437 71.6419 47.6959 71.6419C48.2482 71.6419 48.6959 71.1942 48.6959 70.6419V59.2905ZM61.75 58.2905C62.3023 58.2905 62.75 58.7383 62.75 59.2905V70.6419C62.75 71.1942 62.3023 71.6419 61.75 71.6419C61.1977 71.6419 60.75 71.1942 60.75 70.6419V59.2905C60.75 58.7383 61.1977 58.2905 61.75 58.2905ZM34.6419 59.2905C34.6419 58.7383 34.1942 58.2905 33.6419 58.2905C33.0896 58.2905 32.6419 58.7383 32.6419 59.2905V70.6419C32.6419 71.1942 33.0896 71.6419 33.6419 71.6419C34.1942 71.6419 34.6419 71.1942 34.6419 70.6419V59.2905Z" fill="#00CC66"/>
</svg>

<svg xmlns="http://www.w3.org/2000/svg" width="96" height="96" fill="none"><path fill="#0C6" fill-rule="evenodd" d="M43.746 17.75a3 3 0 0 0-2.917 3.7l2.283 9.514a3 3 0 0 0 2.917 2.3h1.478v.78l-2.189 2.446a4.308 4.308 0 0 0 .427 6.161l-15.071 8.612H24.75a4 4 0 0 0-4 4V74.67a4 4 0 0 0 4 4h45.892a4 4 0 0 0 4-4V55.264a4 4 0 0 0-4-4h-5.113L50.945 42.93c.176-.12.345-.253.506-.402l.255-.235a4.087 4.087 0 0 0 1.314-3.002 1 1 0 0 0-2 0c0 .582-.243 1.138-.671 1.533l-.255.235a2.3 2.3 0 0 1-1.367.603.996.996 0 0 0-.626-.12 1 1 0 0 0-.313.007 2.308 2.308 0 0 1-.98-3.726l2.2-2.458c.321-.359.499-.823.499-1.305v-.797h.937a3 3 0 0 0 2.917-2.3l2.283-9.513a3 3 0 0 0-2.917-3.7h-8.98Zm4.441 25.907a4.523 4.523 0 0 1-.147-.014l-13.335 7.62h26.793l-13.31-7.605Zm17.057 9.607H24.75a2 2 0 0 0-2 2v19.405a2 2 0 0 0 2 2h45.892a2 2 0 0 0 2-2V55.264a2 2 0 0 0-2-2h-5.398Zm-16.737-22h1.937a1 1 0 0 0 .972-.767l2.283-9.514a1 1 0 0 0-.972-1.233h-8.98a1 1 0 0 0-.973 1.233l2.283 9.514a1 1 0 0 0 .972.767h2.478Zm.189 28.027a1 1 0 0 0-2 0v11.35a1 1 0 0 0 2 0v-11.35Zm13.054-1a1 1 0 0 1 1 1v11.35a1 1 0 1 1-2 0v-11.35a1 1 0 0 1 1-1Zm-27.108 1a1 1 0 0 0-2 0v11.35a1 1 0 1 0 2 0v-11.35Z" clip-rule="evenodd"/></svg>
